SVG_Azure_All/Azure AD Risky user.svg

<?xml version="1.0" encoding="UTF-8" standalone="no"?>
<!-- Generated by Microsoft Visio, SVG Export Azure AD Risky user.svg Page-1 -->

<svg
   xmlns:dc="http://purl.org/dc/elements/1.1/"
   xmlns:cc="http://creativecommons.org/ns#"
   xmlns:rdf="http://www.w3.org/1999/02/22-rdf-syntax-ns#"
   xmlns:svg="http://www.w3.org/2000/svg"
   xmlns="http://www.w3.org/2000/svg"
   xmlns:xlink="http://www.w3.org/1999/xlink"
   xmlns:sodipodi="http://sodipodi.sourceforge.net/DTD/sodipodi-0.dtd"
   xmlns:inkscape="http://www.inkscape.org/namespaces/inkscape"
   width="0.79186064in"
   height="0.74799573in"
   viewBox="0 0 57.014164 53.855834"
   xml:space="preserve"
   class="st7"
   version="1.1"
   id="svg52"
   sodipodi:docname="Azure AD Risky user.svg"
   style="font-size:12px;overflow:visible;color-interpolation-filters:sRGB;fill:none;fill-rule:evenodd;stroke-linecap:square;stroke-miterlimit:3"
   inkscape:version="0.92.5 (2060ec1f9f, 2020-04-08)"><metadata
   id="metadata56"><rdf:RDF><cc:Work
       rdf:about=""><dc:format>image/svg+xml</dc:format><dc:type
         rdf:resource="http://purl.org/dc/dcmitype/StillImage" /></cc:Work></rdf:RDF></metadata><sodipodi:namedview
   pagecolor="#ffffff"
   bordercolor="#666666"
   borderopacity="1"
   objecttolerance="10"
   gridtolerance="10"
   guidetolerance="10"
   inkscape:pageopacity="0"
   inkscape:pageshadow="2"
   inkscape:window-width="640"
   inkscape:window-height="480"
   id="namedview54"
   showgrid="false"
   inkscape:zoom="1.4523234"
   inkscape:cx="32.116906"
   inkscape:cy="35.891492"
   inkscape:window-x="0"
   inkscape:window-y="0"
   inkscape:window-maximized="0"
   inkscape:current-layer="svg52" />
	<style
   type="text/css"
   id="style2">
	<![CDATA[
		.st1 {fill:url(#grad0-6);stroke:none;stroke-linecap:butt;stroke-width:34}
		.st2 {fill:#ffffff;fill-opacity:0.8;stroke:none;stroke-linecap:butt;stroke-width:34}
		.st3 {fill:#ff8c00;stroke:none;stroke-linecap:butt;stroke-width:6.36065}
		.st4 {fill:#ffffff}
		.st5 {stroke:none;stroke-linecap:butt;stroke-width:0.75;visibility:hidden}
		.st6 {fill:#ffffff;stroke:none;stroke-linecap:butt;stroke-width:34}
		.st7 {fill:none;fill-rule:evenodd;font-size:12px;overflow:visible;stroke-linecap:square;stroke-miterlimit:3}
	]]>
	</style>

	<defs
   id="Patterns_And_Gradients">
		<linearGradient
   id="grad0-6"
   x1="0"
   y1="0"
   x2="1"
   y2="0"
   gradientTransform="rotate(90,0.5,0.5)">
			<stop
   offset="0.1"
   stop-color="#54aef0"
   stop-opacity="1"
   id="stop4" />
			<stop
   offset="1"
   stop-color="#1988d9"
   stop-opacity="1"
   id="stop6" />
		</linearGradient>
	<linearGradient
   inkscape:collect="always"
   xlink:href="#grad0-6"
   id="linearGradient4566"
   gradientTransform="scale(1.2750471,0.78428474)"
   x1="-0.014256243"
   y1="117.61035"
   x2="37.765492"
   y2="117.61035"
   gradientUnits="userSpaceOnUse" /><linearGradient
   inkscape:collect="always"
   xlink:href="#grad0-6"
   id="linearGradient4568"
   gradientTransform="scale(0.99047531,1.0096163)"
   x1="0"
   y1="93.514831"
   x2="27.198255"
   y2="93.514831"
   gradientUnits="userSpaceOnUse" /></defs>
	<g
   id="g50"
   transform="translate(-34.000223,-33.999872)">
		<title
   id="title10">Page-1</title>
		<g
   id="group8688-1"
   transform="translate(34.0184,-34.0157)">
			<title
   id="title12">Azure AD Risky user</title>
			<g
   id="group8689-2"
   transform="translate(0,-0.0109251)">
				<title
   id="title14">Artboard 1</title>
				<g
   id="shape8690-3">
					<title
   id="title16">path4</title>
					<path
   d="m 43.87,121.87 a 4.24445,4.32646 -180 0 0 4.27,-4.28 2.55142,2.60072 -180 0 0 0,-0.52 C 46.48,103.23 38.81,92.24 24.39,92.24 9.97,92.24 1.63,101.68 0,117.1 a 4.30892,4.39217 -180 0 0 3.83,4.77 z"
   class="st1"
   id="path18"
   inkscape:connector-curvature="0"
   style="fill:url(#linearGradient4566);stroke:none;stroke-width:34;stroke-linecap:butt" />
				</g>
				<g
   id="shape8691-7"
   transform="translate(16.9642,-9.37227)">
					<title
   id="title21">path6</title>
					<path
   d="M 7.23,104.86 A 13.3712,13.6296 0 0 1 0,102.65 l 7.12,19.22 7.2,-19.09 a 13.5714,13.8336 0 0 1 -7.09,2.08 z"
   class="st2"
   id="path23"
   inkscape:connector-curvature="0"
   style="fill:#ffffff;fill-opacity:0.8;stroke:none;stroke-width:34;stroke-linecap:butt" />
				</g>
				<g
   id="shape8692-9"
   transform="translate(10.7214,-26.3876)">
					<title
   id="title26">circle8</title>
					<ellipse
   cx="13.4696"
   cy="108.144"
   rx="13.4696"
   ry="13.7299"
   class="st1"
   id="ellipse28"
   style="fill:url(#linearGradient4568);stroke:none;stroke-width:34;stroke-linecap:butt" />
				</g>
			</g>
			<g
   id="shape8693-12"
   transform="translate(25.2439)">
				<title
   id="title32">path7</title>
				<path
   d="M 31.31,118.27 24.58,107.8 17.85,97.01 a 2.50376,2.31265 0 0 0 -2.13,-1.23 2.50509,2.31389 0 0 0 -2.12,1.23 l -6.73,10.14 -6.73,11.12 a 2.48442,2.29479 0 0 0 2.12,3.6 h 26.92 a 2.48442,2.29479 0 0 0 2.13,-3.6 z M 16.08,103.55 h 1.77 l -0.71,9.49 h -2.83 l -0.36,-9.49 z m -0.36,14.39 a 2.12503,1.96283 -180 0 1 -2.12,-1.96 2.12503,1.96283 -180 0 1 2.12,-1.96 2.12503,1.96283 -180 0 1 2.13,1.96 2.12503,1.96283 -180 0 1 -2.13,1.96 z"
   class="st3"
   id="path34"
   inkscape:connector-curvature="0"
   style="fill:#ff8c00;stroke:none;stroke-width:6.36065006;stroke-linecap:butt" />
			</g>
			<g
   id="shape8694-14"
   transform="translate(38.7754,-3.75774)">
				<title
   id="title37">path877</title>
				<ellipse
   cx="2.1735401"
   cy="119.658"
   rx="2.1735401"
   ry="2.2155399"
   class="st4"
   id="ellipse39"
   style="fill:#ffffff" />
				<ellipse
   cx="2.1735401"
   cy="119.658"
   rx="2.1735401"
   ry="2.2155399"
   class="st5"
   id="ellipse41"
   style="visibility:hidden;stroke:none;stroke-width:0.75;stroke-linecap:butt" />
			</g>
			<g
   id="shape8695-17"
   transform="translate(39.1969,-8.83551)">
				<title
   id="title44">path881</title>
				<path
   d="m 0,112.39 0.35,9.48 h 2.84 l 0.71,-9.48 z"
   class="st6"
   id="path46"
   inkscape:connector-curvature="0"
   style="fill:#ffffff;stroke:none;stroke-width:34;stroke-linecap:butt" />
			</g>
		</g>
	</g>
</svg>

<?xml version="1.0" encoding="UTF-8" standalone="no"?>
<!DOCTYPE svg PUBLIC "-//W3C//DTD SVG 1.1//EN" "http://www.w3.org/Graphics/SVG/1.1/DTD/svg11.dtd">
<!-- Generated by Microsoft Visio, SVG Export Azure AD Risky user.svg Page-1 -->
<svg xmlns="http://www.w3.org/2000/svg" xmlns:xlink="http://www.w3.org/1999/xlink" xmlns:ev="http://www.w3.org/2001/xml-events"
		width="1.61355in" height="1.69269in" viewBox="0 0 116.176 121.874" xml:space="preserve" color-interpolation-filters="sRGB"
		class="st7">
	<style type="text/css">
	<![CDATA[
		.st1 {fill:url(#grad0-6);stroke:none;stroke-linecap:butt;stroke-width:34}
		.st2 {fill:#ffffff;fill-opacity:0.8;stroke:none;stroke-linecap:butt;stroke-width:34}
		.st3 {fill:#ff8c00;stroke:none;stroke-linecap:butt;stroke-width:6.36065}
		.st4 {fill:#ffffff}
		.st5 {stroke:none;stroke-linecap:butt;stroke-width:0.75;visibility:hidden}
		.st6 {fill:#ffffff;stroke:none;stroke-linecap:butt;stroke-width:34}
		.st7 {fill:none;fill-rule:evenodd;font-size:12px;overflow:visible;stroke-linecap:square;stroke-miterlimit:3}
	]]>
	</style>

	<defs id="Patterns_And_Gradients">
		<linearGradient id="grad0-6" x1="0" y1="0" x2="1" y2="0" gradientTransform="rotate(90 0.5 0.5)">
			<stop offset="0.1" stop-color="#54aef0" stop-opacity="1"/>
			<stop offset="1" stop-color="#1988d9" stop-opacity="1"/>
		</linearGradient>
	</defs>
	<g>
		<title>Page-1</title>
		<g id="group8493-1" transform="translate(34.0184,-34.0157)">
			<title>Azure AD Risky user</title>
			<g id="group8494-2" transform="translate(-2.79776E-13,-0.0109251)">
				<title>Artboard 1</title>
				<g id="shape8495-3">
					<title>path4</title>
					<path d="M43.87 121.87 A4.24445 4.32646 -180 0 0 48.14 117.59 A2.55142 2.60072 -180 0 0 48.14 117.07 C46.48 103.23
								 38.81 92.24 24.39 92.24 C9.97 92.24 1.63 101.68 0 117.1 A4.30892 4.39217 -180 0 0 3.83 121.87 L43.87
								 121.87 Z" class="st1"/>
				</g>
				<g id="shape8496-7" transform="translate(16.9642,-9.37227)">
					<title>path6</title>
					<path d="M7.23 104.86 A13.3712 13.6296 0 0 1 0 102.65 L7.12 121.87 L14.32 102.78 A13.5714 13.8336 0 0 1 7.23
								 104.86 Z" class="st2"/>
				</g>
				<g id="shape8497-9" transform="translate(10.7214,-26.3876)">
					<title>circle8</title>
					<ellipse cx="13.4696" cy="108.144" rx="13.4696" ry="13.7299" class="st1"/>
				</g>
			</g>
			<g id="shape8498-12" transform="translate(25.2439,-2.70006E-13)">
				<title>path7</title>
				<path d="M31.31 118.27 L24.58 107.8 L17.85 97.01 A2.50376 2.31265 -0 0 0 15.72 95.78 A2.50509 2.31389 -0 0 0 13.6
							 97.01 L6.87 107.15 L0.14 118.27 A2.48442 2.29479 -0 0 0 2.26 121.87 L29.18 121.87 A2.48442 2.29479 -0
							 0 0 31.31 118.27 ZM16.08 103.55 L17.85 103.55 L17.14 113.04 L14.31 113.04 L13.95 103.55 L16.08 103.55
							 ZM15.72 117.94 A2.12503 1.96283 180 0 1 13.6 115.98 A2.12503 1.96283 180 0 1 15.72 114.02 A2.12503 1.96283
							 180 0 1 17.85 115.98 A2.12503 1.96283 180 0 1 15.72 117.94 Z" class="st3"/>
			</g>
			<g id="shape8499-14" transform="translate(38.7754,-3.75774)">
				<title>path877</title>
				<ellipse cx="2.17354" cy="119.658" rx="2.17354" ry="2.21554" class="st4"/>
				<ellipse cx="2.17354" cy="119.658" rx="2.17354" ry="2.21554" class="st5"/>
			</g>
			<g id="shape8500-17" transform="translate(39.1969,-8.83551)">
				<title>path881</title>
				<path d="M0 112.39 L0.35 121.87 L3.19 121.87 L3.9 112.39 L0 112.39 Z" class="st6"/>
			</g>
		</g>
	</g>
</svg>
